ui/public/images/1j1s/logo-1j1s.svg

<svg width="208" height="25" viewBox="0 0 208 25" fill="none" xmlns="http://www.w3.org/2000/svg">
<g clip-path="url(#clip0_19702_95502)">
<path d="M207.353 0H0V25H207.353V0Z" fill="black"/>
<path d="M13.4172 8.5165L11.446 9.70125L10.0215 7.5893L13.5497 5.42584H16.3159V17.7713H13.4172V8.53367V8.5165Z" fill="white"/>
<path d="M18.4859 22.184C17.6742 22.184 17.1441 22.081 16.6969 21.875V19.454C16.9619 19.557 17.3595 19.6428 18.0055 19.6428C18.7343 19.6428 19.0822 19.2479 19.0822 18.5783V8.87704H21.8153V18.5783C21.8153 20.7417 20.8546 22.1669 18.4859 22.1669V22.184ZM18.6846 6.14696C18.6846 5.20259 19.4797 4.37842 20.4073 4.37842C21.3349 4.37842 22.13 5.18542 22.13 6.14696C22.13 7.1085 21.3349 7.93268 20.4073 7.93268C19.4797 7.93268 18.6846 7.1085 18.6846 6.14696Z" fill="white"/>
<path d="M28.3748 18.1319C25.1945 18.1319 23.5215 15.9341 23.5215 13.3414C23.5215 10.7486 25.0785 8.55084 28.0104 8.55084C30.462 8.55084 32.0853 10.2335 32.0853 12.6374C32.0853 13.2383 32.0024 13.805 31.9196 14.114H26.3209C26.5859 15.316 27.3313 15.625 28.3583 15.625C29.1865 15.625 29.8988 15.2816 30.2963 14.7837L32.2178 16.3462C31.3896 17.4622 30.0313 18.1319 28.3748 18.1319ZM26.3374 12.1394H29.4515C29.4184 11.5385 28.9712 10.8002 27.9607 10.8002C27.0828 10.8002 26.5528 11.2466 26.354 12.1394H26.3374Z" fill="white"/>
<path d="M39.4066 8.89423H42.1563V13.7534C42.1563 16.4148 40.6158 18.1319 37.949 18.1319C35.2821 18.1319 33.7582 16.4148 33.7582 13.7534V8.89423H36.5079V13.9251C36.5079 14.8523 36.9551 15.5048 37.9655 15.5048C38.976 15.5048 39.4066 14.8523 39.4066 13.9251V8.89423Z" fill="white"/>
<path d="M44.2103 8.89425H46.9434V9.39219C47.5066 8.89425 48.2355 8.55084 49.2459 8.55084C51.0845 8.55084 52.5919 9.87296 52.5919 12.5687V17.7885H49.8422V12.6889C49.8422 11.796 49.3784 11.1779 48.5005 11.1779C47.5398 11.1779 47.1091 11.9506 46.9434 12.2596V17.7885H44.2103V8.89425Z" fill="white"/>
<path d="M59.0686 18.1319C55.8882 18.1319 54.2152 15.9341 54.2152 13.3414C54.2152 10.7486 55.7723 8.55084 58.7042 8.55084C61.1557 8.55084 62.779 10.2335 62.779 12.6374C62.779 13.2383 62.6962 13.805 62.6134 14.114H57.0146C57.2796 15.316 58.025 15.625 59.052 15.625C59.8802 15.625 60.5925 15.2816 60.99 14.7837L62.9115 16.3462C62.0833 17.4622 60.725 18.1319 59.0686 18.1319ZM57.0146 12.1394H60.1287C60.0956 11.5385 59.6483 10.8002 58.6379 10.8002C57.76 10.8002 57.2299 11.2466 57.0312 12.1394H57.0146Z" fill="white"/>
<path d="M66.887 8.5165L64.9159 9.70125L63.4913 7.5893L67.0195 5.42584H69.7858V17.7713H66.887V8.53367V8.5165Z" fill="white"/>
<path d="M73.695 14.7665C74.1588 15.3846 74.7386 15.9169 75.5171 15.9169C76.014 15.9169 76.2625 15.6594 76.2625 15.2988C76.2625 14.0797 72.2705 14.5776 72.2705 11.4526C72.2705 9.75277 73.6619 8.55084 75.5668 8.55084C76.9416 8.55084 78.2502 9.23766 78.8962 10.0962L77.1073 11.7445C76.6932 11.2466 76.1797 10.783 75.5668 10.783C75.0864 10.783 74.8711 11.0234 74.8711 11.3324C74.8711 12.4828 78.8631 12.0192 78.8631 15.1271C78.83 17.136 77.2398 18.1662 75.5668 18.1662C73.8938 18.1662 72.8005 17.4966 71.9226 16.4664L73.7116 14.7837L73.695 14.7665Z" fill="white"/>
<path d="M89.5967 13.3414C89.5967 16.0543 87.6587 18.1319 84.8262 18.1319C81.9937 18.1319 80.0391 16.0543 80.0391 13.3414C80.0391 10.6285 81.9771 8.55084 84.8262 8.55084C87.6752 8.55084 89.5967 10.6285 89.5967 13.3414ZM86.7808 13.3414C86.7808 12.0021 85.936 11.1779 84.8427 11.1779C83.7495 11.1779 82.8716 12.0192 82.8716 13.3414C82.8716 14.6635 83.7164 15.5048 84.8427 15.5048C85.9691 15.5048 86.7808 14.6463 86.7808 13.3414Z" fill="white"/>
<path d="M91.3029 4.55011H94.036V17.7713H91.3029V4.55011Z" fill="white"/>
<path d="M101.738 8.89423H104.488V13.7534C104.488 16.4148 102.948 18.1319 100.281 18.1319C97.6139 18.1319 96.09 16.4148 96.09 13.7534V8.89423H98.8397V13.9251C98.8397 14.8523 99.2869 15.5048 100.297 15.5048C101.308 15.5048 101.738 14.8523 101.738 13.9251V8.89423Z" fill="white"/>
<path d="M107.138 11.4011H105.532V8.89423H107.138V6.67926H109.888V8.89423H112.257V11.4011H109.888V14.3372C109.888 15.0412 110.253 15.4361 110.965 15.4361C111.594 15.4361 112.008 15.3503 112.273 15.2473V17.6683C111.81 17.8743 111.28 17.9773 110.468 17.9773C108.116 17.9773 107.138 16.535 107.138 14.3372V11.4011Z" fill="white"/>
<path d="M113.648 6.14696C113.648 5.20259 114.443 4.37842 115.387 4.37842C116.332 4.37842 117.094 5.18542 117.094 6.14696C117.094 7.1085 116.298 7.93268 115.387 7.93268C114.476 7.93268 113.648 7.1085 113.648 6.14696ZM113.979 8.89422H116.713V17.7884H113.979V8.89422Z" fill="white"/>
<path d="M127.993 13.3414C127.993 16.0543 126.055 18.1319 123.222 18.1319C120.39 18.1319 118.435 16.0543 118.435 13.3414C118.435 10.6285 120.373 8.55084 123.222 8.55084C126.071 8.55084 127.993 10.6285 127.993 13.3414ZM125.177 13.3414C125.177 12.0021 124.332 11.1779 123.239 11.1779C122.146 11.1779 121.268 12.0192 121.268 13.3414C121.268 14.6635 122.113 15.5048 123.239 15.5048C124.365 15.5048 125.177 14.6463 125.177 13.3414Z" fill="white"/>
<path d="M129.699 8.89425H132.432V9.39219C132.995 8.89425 133.724 8.55084 134.735 8.55084C136.573 8.55084 138.081 9.87296 138.081 12.5687V17.7885H135.331V12.6889C135.331 11.796 134.867 11.1779 133.989 11.1779C133.029 11.1779 132.598 11.9506 132.432 12.2596V17.7885H129.699V8.89425Z" fill="white"/>
<path d="M139.621 16.1573C139.621 15.1614 140.449 14.3201 141.443 14.3201C142.437 14.3201 143.249 15.1614 143.249 16.1573C143.249 17.1532 142.404 18.0117 141.443 18.0117C140.483 18.0117 139.621 17.1703 139.621 16.1573Z" fill="white"/>
<path d="M145.336 17.1875C145.021 16.7926 144.855 16.3461 144.855 15.8997C144.855 15.1785 145.087 14.6119 145.75 14.0968C144.988 13.513 144.607 12.6545 144.607 11.6586C144.607 9.89009 145.899 8.53363 148.168 8.53363C148.864 8.53363 149.494 8.65382 149.99 8.89421H153.105V11.2465H151.746C151.763 11.3839 151.763 11.5213 151.763 11.6758C151.763 13.4615 150.487 14.818 148.168 14.818C148.003 14.818 147.837 14.818 147.688 14.8008C147.589 14.9038 147.539 15.024 147.539 15.1614C147.539 15.4704 147.721 15.5906 148.003 15.5906H149.974C152.061 15.5906 153.336 16.8612 153.336 18.5611C153.336 20.6044 151.498 22.2356 148.732 22.2356C145.816 22.2356 144.209 21.2912 144.209 19.3509C144.209 18.4924 144.624 17.7884 145.336 17.239V17.1875ZM148.682 19.9862C150.073 19.9862 150.636 19.4883 150.636 18.8187C150.636 18.2864 150.289 17.943 149.609 17.943H147.092C146.909 18.1662 146.744 18.4581 146.744 18.8702C146.744 19.557 147.307 19.9862 148.682 19.9862ZM149.311 11.6586C149.311 10.9375 148.831 10.5769 148.168 10.5769C147.506 10.5769 147.042 10.9375 147.042 11.6586C147.042 12.3798 147.506 12.7575 148.168 12.7575C148.831 12.7575 149.311 12.3798 149.311 11.6586Z" fill="white"/>
<path d="M163.59 13.3414C163.59 16.0543 161.652 18.1319 158.819 18.1319C155.987 18.1319 154.032 16.0543 154.032 13.3414C154.032 10.6285 155.97 8.55084 158.819 8.55084C161.668 8.55084 163.59 10.6285 163.59 13.3414ZM160.774 13.3414C160.774 12.0021 159.929 11.1779 158.836 11.1779C157.743 11.1779 156.865 12.0192 156.865 13.3414C156.865 14.6635 157.71 15.5048 158.836 15.5048C159.962 15.5048 160.774 14.6463 160.774 13.3414Z" fill="white"/>
<path d="M170.348 8.89423H173.098V13.7534C173.098 16.4148 171.557 18.1319 168.89 18.1319C166.224 18.1319 164.7 16.4148 164.7 13.7534V8.89423H167.449V13.9251C167.449 14.8523 167.897 15.5048 168.907 15.5048C169.917 15.5048 170.348 14.8523 170.348 13.9251V8.89423Z" fill="white"/>
<path d="M176.874 8.89423L178.73 14.4059L180.568 8.89423H183.484L180.519 17.7885H176.924L173.959 8.89423H176.874Z" fill="white"/>
<path d="M183.235 16.1573C183.235 15.1614 184.063 14.3201 185.057 14.3201C186.051 14.3201 186.863 15.1614 186.863 16.1573C186.863 17.1532 186.018 18.0117 185.057 18.0117C184.097 18.0117 183.235 17.1703 183.235 16.1573Z" fill="white"/>
<path d="M189.066 8.89424V8.08724C189.066 6.1985 190.308 4.56732 192.677 4.56732C193.472 4.56732 194.151 4.73902 194.764 5.04809L193.621 7.40043C193.439 7.24589 193.124 7.09136 192.727 7.09136C192.163 7.09136 191.816 7.48628 191.816 8.01856V8.91141H194.184V11.4183H191.816V17.8056H189.066V11.4183H187.459V8.91141H189.066V8.89424Z" fill="white"/>
<path d="M195.493 8.89424H198.226V9.61539C198.756 9.10028 199.419 8.72253 200.313 8.72253C200.628 8.72253 200.893 8.77405 201.108 8.84273V11.6071C200.81 11.5385 200.495 11.487 200.048 11.487C199.054 11.487 198.408 12.0879 198.226 12.3798V17.7713H195.493V8.87707V8.89424Z" fill="white"/>
</g>
<defs>
<clipPath id="clip0_19702_95502">
<rect width="207.353" height="25" fill="white"/>
</clipPath>
</defs>
</svg>

<svg xmlns="http://www.w3.org/2000/svg" width="208" height="25" fill="none" viewBox="0 0 208 25"><g clip-path="url(#a)"><path fill="#000" d="M207.353 0H0v25h207.353z"/><path fill="#fff" d="M13.417 8.517 11.446 9.7l-1.424-2.11 3.528-2.163h2.766V17.77h-2.899zm5.069 13.668c-.812 0-1.342-.103-1.79-.309v-2.421c.266.103.663.189 1.31.189.728 0 1.076-.395 1.076-1.065V8.877h2.733v9.701c0 2.164-.96 3.589-3.33 3.589zm.199-16.037c0-.944.795-1.769 1.722-1.769.928 0 1.723.807 1.723 1.769s-.795 1.786-1.723 1.786c-.927 0-1.722-.824-1.722-1.786m9.69 11.985c-3.18 0-4.853-2.198-4.853-4.79S25.078 8.55 28.01 8.55c2.452 0 4.075 1.682 4.075 4.086 0 .601-.083 1.168-.165 1.477h-5.6c.266 1.202 1.011 1.511 2.038 1.511.828 0 1.54-.343 1.938-.841l1.922 1.562c-.828 1.116-2.187 1.786-3.843 1.786m-2.038-5.993h3.114c-.033-.6-.48-1.339-1.49-1.339-.878 0-1.408.447-1.607 1.34zm13.07-3.244h2.75v4.86c0 2.66-1.541 4.378-4.208 4.378s-4.19-1.717-4.19-4.379V8.894h2.749v5.031c0 .927.447 1.58 1.457 1.58s1.442-.653 1.442-1.58zm4.803 0h2.733v.498c.564-.498 1.293-.841 2.303-.841 1.838 0 3.346 1.322 3.346 4.018v5.22h-2.75v-5.1c0-.893-.464-1.511-1.341-1.511-.961 0-1.392.773-1.558 1.082v5.528H44.21zm14.859 9.238c-3.18 0-4.854-2.198-4.854-4.79s1.557-4.791 4.49-4.791c2.45 0 4.074 1.682 4.074 4.086 0 .601-.083 1.168-.166 1.477h-5.598c.265 1.202 1.01 1.511 2.037 1.511.828 0 1.54-.343 1.938-.841l1.921 1.562c-.828 1.116-2.186 1.786-3.842 1.786m-2.054-5.993h3.114c-.033-.6-.48-1.339-1.491-1.339-.878 0-1.408.447-1.607 1.34zm9.872-3.622L64.916 9.7 63.49 7.59l3.528-2.163h2.767V17.77h-2.899V8.516m6.809 6.251c.464.618 1.044 1.15 1.822 1.15.497 0 .746-.258.746-.618 0-1.22-3.993-.721-3.993-3.846 0-1.7 1.392-2.902 3.297-2.902 1.375 0 2.683.687 3.33 1.545l-1.79 1.649c-.414-.498-.927-.962-1.54-.962-.48 0-.696.24-.696.55 0 1.15 3.992.686 3.992 3.794-.033 2.009-1.623 3.04-3.296 3.04s-2.766-.67-3.644-1.7l1.789-1.683zm15.902-1.426c0 2.713-1.938 4.79-4.77 4.79-2.833 0-4.788-2.077-4.788-4.79s1.938-4.79 4.787-4.79 4.77 2.078 4.77 4.79m-2.816 0c0-1.339-.845-2.163-1.938-2.163-1.094 0-1.971.841-1.971 2.163 0 1.323.844 2.164 1.97 2.164 1.127 0 1.939-.859 1.939-2.164m4.523-8.791h2.733v13.221h-2.733zm10.435 4.344h2.75v4.86c0 2.66-1.54 4.378-4.207 4.378s-4.191-1.717-4.191-4.379V8.894h2.75v5.031c0 .927.447 1.58 1.457 1.58s1.441-.653 1.441-1.58zm5.4 2.507h-1.606V8.894h1.606V6.68h2.75v2.215h2.369v2.507h-2.369v2.936c0 .704.365 1.1 1.077 1.1.629 0 1.043-.087 1.308-.19v2.421c-.463.206-.993.31-1.805.31-2.352 0-3.33-1.443-3.33-3.64zm6.51-5.254c0-.944.795-1.769 1.739-1.769s1.707.807 1.707 1.769-.796 1.786-1.707 1.786-1.739-.824-1.739-1.786m.331 2.747h2.734v8.894h-2.734zm14.014 4.447c0 2.713-1.938 4.79-4.771 4.79-2.832 0-4.787-2.077-4.787-4.79s1.938-4.79 4.787-4.79 4.771 2.078 4.771 4.79m-2.816 0c0-1.339-.845-2.163-1.938-2.163s-1.971.841-1.971 2.163c0 1.323.845 2.164 1.971 2.164s1.938-.859 1.938-2.164m4.522-4.447h2.733v.498c.563-.498 1.292-.841 2.303-.841 1.838 0 3.346 1.322 3.346 4.018v5.22h-2.75v-5.1c0-.893-.464-1.511-1.342-1.511-.96 0-1.391.773-1.557 1.082v5.528h-2.733zm9.922 7.263c0-.996.828-1.837 1.822-1.837s1.806.841 1.806 1.837-.845 1.855-1.806 1.855c-.96 0-1.822-.842-1.822-1.855m5.715 1.031c-.315-.395-.481-.842-.481-1.288 0-.722.232-1.288.895-1.803-.762-.584-1.143-1.442-1.143-2.438 0-1.769 1.292-3.125 3.561-3.125.696 0 1.326.12 1.822.36h3.115v2.352h-1.359c.017.138.017.275.017.43 0 1.785-1.276 3.142-3.595 3.142-.165 0-.331 0-.48-.017a.5.5 0 0 0-.149.36c0 .31.182.43.464.43h1.971c2.087 0 3.362 1.27 3.362 2.97 0 2.043-1.838 3.675-4.604 3.675-2.916 0-4.523-.945-4.523-2.885 0-.859.415-1.563 1.127-2.112zm3.346 2.798c1.391 0 1.954-.498 1.954-1.167 0-.533-.347-.876-1.027-.876h-2.517a1.4 1.4 0 0 0-.348.927c0 .687.563 1.116 1.938 1.116m.629-8.327c0-.722-.48-1.082-1.143-1.082-.662 0-1.126.36-1.126 1.082 0 .72.464 1.098 1.126 1.098.663 0 1.143-.377 1.143-1.098m14.279 1.682c0 2.713-1.938 4.79-4.771 4.79-2.832 0-4.787-2.077-4.787-4.79s1.938-4.79 4.787-4.79 4.771 2.078 4.771 4.79m-2.816 0c0-1.339-.845-2.163-1.938-2.163s-1.971.841-1.971 2.163c0 1.323.845 2.164 1.971 2.164s1.938-.859 1.938-2.164m9.574-4.447h2.75v4.86c0 2.66-1.541 4.378-4.208 4.378-2.666 0-4.19-1.717-4.19-4.379V8.894h2.749v5.031c0 .927.448 1.58 1.458 1.58s1.441-.653 1.441-1.58zm6.526 0 1.856 5.512 1.838-5.512h2.916l-2.965 8.894h-3.595l-2.965-8.894zm6.361 7.263c0-.996.828-1.837 1.822-1.837s1.806.841 1.806 1.837-.845 1.855-1.806 1.855c-.96 0-1.822-.842-1.822-1.855m5.831-7.263v-.807c0-1.888 1.242-3.52 3.611-3.52.795 0 1.474.172 2.087.481L193.621 7.4a1.4 1.4 0 0 0-.894-.309c-.564 0-.911.395-.911.928v.892h2.368v2.507h-2.368v6.388h-2.75v-6.388h-1.607V8.911h1.607zm6.427 0h2.733v.721c.53-.515 1.193-.892 2.087-.892.315 0 .58.051.795.12v2.764a4.4 4.4 0 0 0-1.06-.12c-.994 0-1.64.6-1.822.893v5.391h-2.733V8.877z"/></g><defs><clipPath id="a"><path fill="#fff" d="M0 0h207.353v25H0z"/></clipPath></defs></svg>
